src/svg/circle-thin.svg

<svg height="1000" width="857.143" xmlns="http://www.w3.org/2000/svg"><path d="M428.544 142.912q-72.54 0 -138.663 28.458t-113.832 76.167 -76.167 113.832 -28.458 138.663 28.458 138.663 76.167 113.832 113.832 76.167 138.663 28.458 138.663 -28.458 113.832 -76.167 76.167 -113.832 28.458 -138.663 -28.458 -138.663 -76.167 -113.832 -113.832 -76.167 -138.663 -28.458zm428.544 357.12q0 116.622 -57.474 215.109t-155.961 155.961 -215.109 57.474 -215.109 -57.474 -155.961 -155.961 -57.474 -215.109 57.474 -215.109 155.961 -155.961 215.109 -57.474 215.109 57.474 155.961 155.961 57.474 215.109z"/></svg>

<svg height="1000" width="857.1" xmlns="http://www.w3.org/2000/svg"><path d="M428.6 142.9q-72.6 0 -138.7 28.4t-113.8 76.2T99.9 361.3 71.4 500t28.5 138.7 76.2 113.8 113.8 76.2 138.7 28.4 138.6 -28.4 113.9 -76.2 76.2 -113.8T785.7 500 757.3 361.3 681.1 247.5 567.2 171.3 428.6 142.9zM857.1 500q0 116.6 -57.4 215.1t-156 156 -215.1 57.5T213.4 871.1 57.5 715.1 0 500 57.5 284.9t155.9 -156T428.6 71.4t215.1 57.5 156 156T857.1 500z"/></svg>
